X:1
T:Title
%%score 1 { 2 | 3 }
L:1/8
Q:1/4=103
M:6/8
K:G
V:1 treble nm="Grand Piano, Soprano"
V:2 treble nm="Choir Pad, Bass"
V:3 bass 
V:1
 [DG] [GB]2 [GB] [Gc]2 | [GB] E2 [DF] [DG]2 | [DG] [Ee]2 [=Fd] [Ac]2 | %3
w: By~“H.K.”,~1869 * * *|||
 [^GB] [Ac]2- [Ac]2- [Ac]/ z/ | [Ac] [Ac]2 [Ac] [FB]2 | [FA] [FA]2 [EG] [B,G]2 | %6
w: |||
 [CE] [B,D]2 [DG] [DB]2 | [DA] [DG]2- [DG]2- [DG]/ z/ | z [Bd]>[Ac] [GB] [GB]2 | %9
w: |||
 [FA] [EG]2 [CE] [DG]2 | [DG] [GB]2 G [Ec]2 | [Ec] [^DB]2- [DB]2- [DB]/ z/ | %12
w: |||
 [^DB] [=DB]2 [DA] [Fe]2 | [Fd] [Gd]2 [DB] [EG]2 | [^CA] [DB]2 [B,D] [=CE]2 | %15
w: |||
 [CA] [B,G]2- [B,G]3- | [B,G]3 z3 |] %17
w: ||
V:2
 B, D2 D E2 | D C2 C[K:bass] B,2 | B, C2 B, E2 | E E2- E2- E/ z/ | E E2 E ^D2 | B, B,2 B, G,2 | %6
 G, G,2 B, D2 | C B,2- B,2- B,/ z/ | z[K:treble] D>D D D2 | C C2[K:bass] G, B,2 | B, D2 B, A,2 | %11
 G, F,2- F,2- F,/ z/ | F, F,2 F, C2 | C B,2 G, B,2 | A, G,2 G, F,2 | F, G,2- G,3- | G,3 z3 |] %17
V:3
 G, G,2 G, G,2 | G, G,2 G, G,2 | G, C,2 D, E,2 | E, A,,2- A,,2- A,,/ z/ | A, F,2 F, B,2 | %5
 B,, E,2 E, E,2 | C, D,2 D, D,2 | D, G,,2- G,,2- G,,/ z/ | z G,>G, G, G,2 | G, G,2 z G,2 | %10
 G,, G,,2 G,, A,,2 | A,, B,,2- B,,2- B,,/ z/ | B,, D,2 D, D,2 | D, G,2 z E,2 | E, D,2 D, D,2 | %15
 D, G,,2- G,,3- | G,,3 z3 |] %17

